X:1
T:The Deacon's Daughter
M:2/2
L:1/4
K:G
 D| G2 B c| d2- d c| B- G A A| G2 z|D/2-D/2| G2 B c| d2 d c| B2 B c|\
 d2 z| D| G2 B c| d2 d d| B- G A F| G2 D D| G- A B c| d e d c| B A2 A|\
 G2 z||
